symbols/web/edit_notifications/materialsymbolssharp/edit_notifications_wght200gradN25_40px.svg

<svg xmlns="http://www.w3.org/2000/svg" height="40" width="40"><path d="M21.167 21.458v-1.916l8.916-8.917L32 12.542l-8.917 8.916Zm11.958-10.041 1.708-1.709-1.916-1.916L31.208 9.5ZM7.583 31.208v-1.375h3.375V17q0-3.208 2.063-5.792Q15.083 8.625 18.417 8V5.292h3.166v2.75q1.084.166 2.292.75 1.208.583 2.25 1.5l-.917 1q-1.125-.959-2.458-1.479-1.333-.521-2.75-.521-3.208 0-5.458 2.25T12.292 17v12.833h15.416v-8.75l1.375-1.333v10.083h3.375v1.375ZM20 35.958q-1.125 0-1.896-.77-.771-.771-.771-1.896h5.334q0 1.125-.771 1.896-.771.77-1.896.77Zm0-16.416Z"/></svg>

<svg xmlns="http://www.w3.org/2000/svg" height="40" width="40"><path d="M21.167 21.458V19.542L30.083 10.625L32 12.542L23.083 21.458ZM33.125 11.417 34.833 9.708 32.917 7.792 31.208 9.5ZM7.583 31.208V29.833H10.958V17Q10.958 13.792 13.021 11.208Q15.083 8.625 18.417 8V5.292H21.583V8.042Q22.667 8.208 23.875 8.792Q25.083 9.375 26.125 10.292L25.208 11.292Q24.083 10.333 22.75 9.813Q21.417 9.292 20 9.292Q16.792 9.292 14.542 11.542Q12.292 13.792 12.292 17V29.833H27.708V21.083L29.083 19.75V29.833H32.458V31.208ZM20 35.958Q18.875 35.958 18.104 35.188Q17.333 34.417 17.333 33.292H22.667Q22.667 34.417 21.896 35.188Q21.125 35.958 20 35.958ZM20 19.542Q20 19.542 20 19.542Q20 19.542 20 19.542Q20 19.542 20 19.542Q20 19.542 20 19.542Z"/></svg>
